proprietary/assets/icons/energie-en-chemie/netwerk.svg

<svg height="64" viewBox="0 0 64 64" width="64" xmlns="http://www.w3.org/2000/svg"><path d="m0 0h64v64h-64z" fill="none"/><path d="m48.8494 52h13.1506v-3h-13.1506c-.3143-1.5481-1.11-2.9177-2.2181-3.9595l8.1495-13.2076c.3923.0988.7963.1671 1.2192.1671 2.7614 0 5-2.2386 5-5s-2.2386-5-5-5c-.5645 0-1.0978.1143-1.604.2867l-9.2314-12.5534c.5237-.7863.8354-1.723.8354-2.7333 0-2.7614-2.2386-5-5-5-2.7398 0-5.1328 2.2474-4.9736 5.2673l-14.5089 6.7698c-1.3224-1.78-3.4103-2.9509-5.7802-3.0251l-1.546-9.012h-3.044l1.6326 9.5164c-2.3443.914-4.1183 2.9667-4.6293 5.4836h-6.1506v3h6.1506c.5392 2.656 2.4833 4.7985 5.0218 5.6272l-2.1194 18.4683c-2.3077.4431-4.053 2.4674-4.053 4.9045 0 2.7614 2.2386 5 5 5 2.1471 0 3.9629-1.3604 4.6713-3.2605l17.4221.8857c.6968 4.6187 5.4261 7.5189 9.8977 5.9421l2.6596 4.4327h3.4986l-3.5867-5.9779c1.1436-1.0491 1.9661-2.4424 2.2868-4.0221zm-9.4926-40.2851c.5014.1713 1.0305.2851 1.5932.2851.6649 0 1.2996-.1359 1.8843-.3715l9.1404 12.4296c-.1161.1585-.215.327-.3121.4989l-18.3749-3.8565zm11.6929 15.7788c.0103.1036.0148.2086.0313.3102l-18.498 9.3426-5.6808-6.9919 4.5721-6.7693zm-21.2074 11.0371-13.0487 6.5901 8.3539-12.3683zm-4.917-10.8092-3.6276-4.4647c.4402-.5358.8056-1.1346 1.085-1.7795l5.9208 1.2426zm-5.9578-2.5751 4.2031 5.173-9.0557 13.4075 2.038-17.7599c1.009-.0873 1.9596-.3736 2.8146-.8206zm12.8108 15.7671 3.924 4.8295c-.6823.8306-1.1817 1.8135-1.4576 2.8862l-16.1202-.8198zm6.2541 2.9399-3.5134-4.3242 17.4138-8.7948-7.8545 12.73c-2.0395-.7478-4.2049-.5734-6.0459.389zm-1.308-33.6011-6.6075 9.7827-7.119-1.4941c.0001-.0139.0021-.0272.0021-.041 0-.6019-.0785-1.1842-.2124-1.7451z"/></svg>

<?xml version="1.0" encoding="utf-8"?>
<!-- Generator: Adobe Illustrator 19.1.0, SVG Export Plug-In . SVG Version: 6.00 Build 0)  -->
<svg version="1.2" baseProfile="tiny" xmlns="http://www.w3.org/2000/svg" xmlns:xlink="http://www.w3.org/1999/xlink" x="0px"
	 y="0px" width="64px" height="64px" viewBox="0 0 64 64" xml:space="preserve">
<g id="_x36_4px_Box">
	<rect fill="none" width="64" height="64"/>
</g>
<g id="Icon">
	<path d="M48.8494,52H62v-3H48.8494c-0.3143-1.5481-1.11-2.9177-2.2181-3.9595l8.1495-13.2076C55.1731,31.9317,55.5771,32,56,32
		c2.7614,0,5-2.2386,5-5s-2.2386-5-5-5c-0.5645,0-1.0978,0.1143-1.604,0.2867L45.1646,9.7333C45.6883,8.947,46,8.0103,46,7
		c0-2.7614-2.2386-5-5-5c-2.7398,0-5.1328,2.2474-4.9736,5.2673l-14.5089,6.7698c-1.3224-1.78-3.4103-2.9509-5.7802-3.0251
		L14.1913,2h-3.044l1.6326,9.5164C10.4356,12.4304,8.6616,14.4831,8.1506,17H2v3h6.1506c0.5392,2.656,2.4833,4.7985,5.0218,5.6272
		L11.053,44.0955C8.7453,44.5386,7,46.5629,7,49c0,2.7614,2.2386,5,5,5c2.1471,0,3.9629-1.3604,4.6713-3.2605l17.4221,0.8857
		c0.6968,4.6187,5.4261,7.5189,9.8977,5.9421L46.6507,62h3.4986l-3.5867-5.9779C47.7062,54.973,48.5287,53.5797,48.8494,52z
		 M39.3568,11.7149C39.8582,11.8862,40.3873,12,40.95,12c0.6649,0,1.2996-0.1359,1.8843-0.3715l9.1404,12.4296
		c-0.1161,0.1585-0.215,0.327-0.3121,0.4989l-18.3749-3.8565L39.3568,11.7149z M51.0497,27.4937
		c0.0103,0.1036,0.0148,0.2086,0.0313,0.3102l-18.498,9.3426l-5.6808-6.9919l4.5721-6.7693L51.0497,27.4937z M29.8423,38.5308
		l-13.0487,6.5901l8.3539-12.3683L29.8423,38.5308z M24.9253,27.7216l-3.6276-4.4647c0.4402-0.5358,0.8056-1.1346,1.085-1.7795
		l5.9208,1.2426L24.9253,27.7216z M18.9675,25.1465l4.2031,5.173L14.1149,43.727l2.038-17.7599
		C17.1619,25.8798,18.1125,25.5935,18.9675,25.1465z M31.7783,40.9136l3.924,4.8295c-0.6823,0.8306-1.1817,1.8135-1.4576,2.8862
		l-16.1202-0.8198L31.7783,40.9136z M38.0324,43.8535l-3.5134-4.3242l17.4138-8.7948l-7.8545,12.73
		C42.0388,42.7167,39.8734,42.8911,38.0324,43.8535z M36.7244,10.2524l-6.6075,9.7827l-7.119-1.4941
		C22.998,18.5271,23,18.5138,23,18.5c0-0.6019-0.0785-1.1842-0.2124-1.7451L36.7244,10.2524z"/>
</g>
</svg>
